X: 5
T: Drink to Me Only With Thine Eyes
M: 6/8
K: C
L: 1/8
Q: 1/4=120
| !p!(v!tenuto!B!tenuto!B!tenuto!B) (uc2 u!tenuto!c) | !<(!(dcB) (ABc!<)! | d)(vGc) (uB2 A) |1 G6 :|2 !>(!(G3 G)!>)! z !tenuto!ud ||
(vdBd) (ug2 ud) | (dBd) (ud2 ud) | (e2 d) (dcB) | !>(! B3 A3 !>)! |
(u!tenuto!B !tenuto!B !tenuto!B) (uc2 u!tenuto!c) | (dcB) (uABc | d)(vGc) (uB2 A) | !fermata!G6 |
